src/assets/Training/right_arrow_green.svg

<svg fill="none" height="8" viewBox="0 0 17 8" width="17" xmlns="http://www.w3.org/2000/svg"><path d="m16.3536 4.03544c.1952-.19526.1952-.51185 0-.70711l-3.182-3.181979c-.1953-.1952623-.5119-.1952623-.7071 0-.1953.195262-.1953.511844 0 .707107l2.8284 2.828422-2.8284 2.82843c-.1953.19526-.1953.51185 0 .70711.1952.19526.5118.19526.7071 0zm-16.3536-.35356v.5h16v-.5-.5h-16z" fill="#16d2aa"/></svg>

<svg width="17" height="8" viewBox="0 0 17 8" fill="none" xmlns="http://www.w3.org/2000/svg">
<path d="M16.3536 4.03544C16.5488 3.84018 16.5488 3.52359 16.3536 3.32833L13.1716 0.146351C12.9763 -0.0489113 12.6597 -0.0489113 12.4645 0.146351C12.2692 0.341613 12.2692 0.658195 12.4645 0.853458L15.2929 3.68188L12.4645 6.51031C12.2692 6.70557 12.2692 7.02216 12.4645 7.21742C12.6597 7.41268 12.9763 7.41268 13.1716 7.21742L16.3536 4.03544ZM0 3.68188V4.18188H16V3.68188V3.18188H0V3.68188Z" fill="#16D2AA"/>
</svg>
